src/assets/images/material-symbols_call.svg

<svg width="30" height="31" viewBox="0 0 30 31" fill="none" xmlns="http://www.w3.org/2000/svg">
<g id="material-symbols:call">
<path id="Vector" d="M24.9375 26.6914C22.25 26.6914 19.6304 26.0922 17.0788 24.8939C14.5271 23.6956 12.2667 22.1122 10.2975 20.1439C8.32833 18.1756 6.745 15.9152 5.5475 13.3627C4.35 10.8102 3.75083 8.19057 3.75 5.50391C3.75 5.12891 3.875 4.81641 4.125 4.56641C4.375 4.31641 4.6875 4.19141 5.0625 4.19141H10.125C10.4167 4.19141 10.6771 4.28516 10.9063 4.47266C11.1354 4.66016 11.2708 4.89974 11.3125 5.19141L12.125 9.56641C12.1667 9.85807 12.1613 10.1239 12.1088 10.3639C12.0563 10.6039 11.9367 10.8172 11.75 11.0039L8.75 14.0664C9.625 15.5664 10.7188 16.9727 12.0312 18.2852C13.3438 19.5977 14.7917 20.7331 16.375 21.6914L19.3125 18.7539C19.5 18.5664 19.745 18.426 20.0475 18.3327C20.35 18.2393 20.6467 18.2131 20.9375 18.2539L25.25 19.1289C25.5417 19.1914 25.7812 19.3322 25.9688 19.5514C26.1562 19.7706 26.25 20.0256 26.25 20.3164V25.3789C26.25 25.7539 26.125 26.0664 25.875 26.3164C25.625 26.5664 25.3125 26.6914 24.9375 26.6914Z" fill="black"/>
</g>
</svg>

<svg width="30" height="31" fill="none" xmlns="http://www.w3.org/2000/svg"><path d="M24.938 26.691c-2.688 0-5.308-.599-7.86-1.797a23.862 23.862 0 0 1-11.53-11.531C4.35 10.81 3.75 8.19 3.75 5.503c0-.374.125-.687.375-.937s.563-.375.938-.375h5.062a1.2 1.2 0 0 1 .781.282 1.1 1.1 0 0 1 .406.718l.813 4.375a2.24 2.24 0 0 1-.016.798 1.28 1.28 0 0 1-.359.64l-3 3.062a20.762 20.762 0 0 0 3.281 4.22 22.869 22.869 0 0 0 4.344 3.405l2.938-2.937c.187-.188.432-.328.735-.421.302-.094.599-.12.89-.08l4.312.876c.292.062.531.203.719.422.187.22.281.475.281.765v5.063c0 .375-.125.687-.375.937s-.563.375-.938.375Z" fill="#000"/></svg>
